public/img/failed.svg

<svg xmlns="http://www.w3.org/2000/svg" width="241" height="196" fill="none" xmlns:v="https://vecta.io/nano"><rect x="77" y="30" width="87" height="87" rx="43.5" fill="#d80009"/><path d="M103 91l17.5-17.5m0 0L138 56m-17.5 17.5L103 56m17.5 17.5L138 91" stroke="#fefefe" stroke-width="10" stroke-linecap="round" stroke-linejoin="round"/><rect x="62" y="15" width="117" height="117" rx="58.5" stroke="#d80009" stroke-opacity=".1" stroke-width="30"/><path d="M12.06 178.36a4.28 4.28 0 0 1-.54 2.1c-.347.653-.9 1.18-1.66 1.58-.747.4-1.693.6-2.84.6H4.68V188h-2.8v-13.96h5.14c1.08 0 2 .187 2.76.56s1.327.887 1.7 1.54c.387.653.58 1.393.58 2.22zm-5.16 2.02c.773 0 1.347-.173 1.72-.52.373-.36.56-.86.56-1.5 0-1.36-.76-2.04-2.28-2.04H4.68v4.06H6.9zm6.428 2.04c0-1.12.22-2.113.66-2.98.453-.867 1.06-1.533 1.82-2 .773-.467 1.633-.7 2.58-.7.827 0 1.547.167 2.16.5.627.333 1.127.753 1.5 1.26v-1.58h2.82V188h-2.82v-1.62c-.36.52-.86.953-1.5 1.3-.627.333-1.353.5-2.18.5-.933 0-1.787-.24-2.56-.72-.76-.48-1.367-1.153-1.82-2.02-.44-.88-.66-1.887-.66-3.02zm8.72.04c0-.68-.133-1.26-.4-1.74-.267-.493-.627-.867-1.08-1.12a2.83 2.83 0 0 0-1.46-.4 2.84 2.84 0 0 0-1.44.38c-.44.253-.8.627-1.08 1.12-.267.48-.4 1.053-.4 1.72s.133 1.253.4 1.76c.28.493.64.873 1.08 1.14.453.267.933.4 1.44.4a2.95 2.95 0 0 0 1.46-.38c.453-.267.813-.64 1.08-1.12.267-.493.4-1.08.4-1.76zm16.155-5.54l-6.86 16.32h-2.98l2.4-5.52-4.44-10.8h3.14l2.86 7.74 2.9-7.74h2.98zm15.269-.16c1.36 0 2.453.42 3.28 1.26.84.827 1.26 1.987 1.26 3.48v6.5h-2.8v-6.12c0-.867-.22-1.527-.66-1.98-.44-.467-1.04-.7-1.8-.7s-1.367.233-1.82.7c-.44.453-.66 1.113-.66 1.98V188h-2.8v-6.12c0-.867-.22-1.527-.66-1.98-.44-.467-1.04-.7-1.8-.7-.773 0-1.387.233-1.84.7-.44.453-.66 1.113-.66 1.98V188h-2.8v-11.08h2.8v1.34c.36-.467.82-.833 1.38-1.1.573-.267 1.2-.4 1.88-.4.867 0 1.64.187 2.32.56a3.79 3.79 0 0 1 1.58 1.56 4.03 4.03 0 0 1 1.56-1.54 4.52 4.52 0 0 1 2.24-.58zm17.497 5.46c0 .4-.027.76-.08 1.08h-8.1c.067.8.347 1.427.84 1.88s1.1.68 1.82.68c1.04 0 1.78-.447 2.22-1.34h3.02c-.32 1.067-.933 1.947-1.84 2.64-.907.68-2.02 1.02-3.34 1.02-1.067 0-2.027-.233-2.88-.7a5.15 5.15 0 0 1-1.98-2.02c-.467-.867-.7-1.867-.7-3 0-1.147.233-2.153.7-3.02s1.12-1.533 1.96-2 1.807-.7 2.9-.7c1.053 0 1.993.227 2.82.68a4.69 4.69 0 0 1 1.94 1.94c.467.827.7 1.78.7 2.86zm-2.9-.8c-.013-.72-.273-1.293-.78-1.72-.507-.44-1.127-.66-1.86-.66-.693 0-1.28.213-1.76.64-.467.413-.753.993-.86 1.74h5.26zm11.084-4.66c1.32 0 2.387.42 3.2 1.26.813.827 1.22 1.987 1.22 3.48v6.5h-2.8v-6.12c0-.88-.22-1.553-.66-2.02-.44-.48-1.04-.72-1.8-.72-.773 0-1.387.24-1.84.72-.44.467-.66 1.14-.66 2.02V188h-2.8v-11.08h2.8v1.38a3.8 3.8 0 0 1 1.42-1.12 4.4 4.4 0 0 1 1.92-.42zm10.343 2.46v5.36c0 .373.087.647.26.82.187.16.493.24.92.24h1.3V188h-1.76c-2.36 0-3.54-1.147-3.54-3.44v-5.34h-1.32v-2.3h1.32v-2.74h2.82v2.74h2.48v2.3h-2.48zm12.019-5.18v8.64c0 .947.247 1.673.74 2.18.493.493 1.187.74 2.08.74.907 0 1.607-.247 2.1-.74.493-.507.74-1.233.74-2.18v-8.64h2.82v8.62c0 1.187-.26 2.193-.78 3.02-.507.813-1.193 1.427-2.06 1.84-.853.413-1.807.62-2.86.62-1.04 0-1.987-.207-2.84-.62a4.75 4.75 0 0 1-2-1.84c-.493-.827-.74-1.833-.74-3.02v-8.62h2.8zm17.325 2.72c1.32 0 2.387.42 3.2 1.26.814.827 1.22 1.987 1.22 3.48v6.5h-2.8v-6.12c0-.88-.22-1.553-.66-2.02-.44-.48-1.04-.72-1.8-.72-.773 0-1.386.24-1.84.72-.44.467-.66 1.14-.66 2.02V188h-2.8v-11.08h2.8v1.38c.374-.48.847-.853 1.42-1.12.587-.28 1.227-.42 1.92-.42zm11.323 11.42c-.907 0-1.72-.16-2.44-.48-.72-.333-1.293-.78-1.72-1.34a3.41 3.41 0 0 1-.68-1.86h2.82c.053.427.26.78.62 1.06.373.28.833.42 1.38.42.533 0 .947-.107 1.24-.32.307-.213.46-.487.46-.82 0-.36-.187-.627-.56-.8-.36-.187-.94-.387-1.74-.6-.827-.2-1.507-.407-2.04-.62-.52-.213-.973-.54-1.36-.98-.373-.44-.56-1.033-.56-1.78a2.91 2.91 0 0 1 .52-1.68c.36-.507.867-.907 1.52-1.2.667-.293 1.447-.44 2.34-.44 1.32 0 2.373.333 3.16 1 .787.653 1.22 1.54 1.3 2.66h-2.68c-.04-.44-.227-.787-.56-1.04-.32-.267-.753-.4-1.3-.4-.507 0-.9.093-1.18.28-.267.187-.4.447-.4.78 0 .373.187.66.56.86.373.187.953.38 1.74.58.8.2 1.46.407 1.98.62s.967.547 1.34 1c.387.44.587 1.027.6 1.76 0 .64-.18 1.213-.54 1.72-.347.507-.853.907-1.52 1.2-.653.28-1.42.42-2.3.42zm17.118-11.26V188h-2.82v-1.4c-.36.48-.833.86-1.42 1.14-.573.267-1.2.4-1.88.4-.866 0-1.633-.18-2.3-.54-.666-.373-1.193-.913-1.58-1.62-.373-.72-.56-1.573-.56-2.56v-6.5h2.8v6.1c0 .88.22 1.56.66 2.04.44.467 1.04.7 1.8.7.774 0 1.38-.233 1.82-.7.44-.48.66-1.16.66-2.04v-6.1h2.82zm2.043 5.54c0-1.147.233-2.147.7-3a4.92 4.92 0 0 1 1.94-2c.827-.48 1.773-.72 2.84-.72 1.373 0 2.507.347 3.4 1.04.907.68 1.513 1.64 1.82 2.88h-3.02c-.16-.48-.433-.853-.82-1.12-.373-.28-.84-.42-1.4-.42-.8 0-1.433.293-1.9.88-.467.573-.7 1.393-.7 2.46 0 1.053.233 1.873.7 2.46.467.573 1.1.86 1.9.86 1.133 0 1.873-.507 2.22-1.52h3.02c-.307 1.2-.913 2.153-1.82 2.86s-2.04 1.06-3.4 1.06c-1.067 0-2.013-.233-2.84-.7a5.09 5.09 0 0 1-1.94-2c-.467-.867-.7-1.873-.7-3.02zm12.031 0c0-1.147.234-2.147.7-3 .467-.867 1.114-1.533 1.94-2 .827-.48 1.774-.72 2.84-.72 1.374 0 2.507.347 3.4 1.04.907.68 1.514 1.64 1.82 2.88h-3.02c-.16-.48-.433-.853-.82-1.12-.373-.28-.84-.42-1.4-.42-.8 0-1.433.293-1.9.88-.466.573-.7 1.393-.7 2.46 0 1.053.234 1.873.7 2.46.467.573 1.1.86 1.9.86 1.134 0 1.874-.507 2.22-1.52h3.02c-.306 1.2-.913 2.153-1.82 2.86s-2.04 1.06-3.4 1.06c-1.066 0-2.013-.233-2.84-.7-.826-.48-1.473-1.147-1.94-2-.466-.867-.7-1.873-.7-3.02zm23.052-.24c0 .4-.027.76-.08 1.08h-8.1c.066.8.346 1.427.84 1.88s1.1.68 1.82.68c1.04 0 1.78-.447 2.22-1.34h3.02c-.32 1.067-.934 1.947-1.84 2.64-.907.68-2.02 1.02-3.34 1.02-1.067 0-2.027-.233-2.88-.7a5.15 5.15 0 0 1-1.98-2.02c-.467-.867-.7-1.867-.7-3 0-1.147.233-2.153.7-3.02a4.88 4.88 0 0 1 1.96-2c.84-.467 1.806-.7 2.9-.7 1.053 0 1.993.227 2.82.68a4.69 4.69 0 0 1 1.94 1.94c.466.827.7 1.78.7 2.86zm-2.9-.8c-.014-.72-.274-1.293-.78-1.72-.507-.44-1.127-.66-1.86-.66-.694 0-1.28.213-1.76.64-.467.413-.754.993-.86 1.74h5.26zm9.183 6.76c-.906 0-1.72-.16-2.44-.48-.72-.333-1.293-.78-1.72-1.34a3.41 3.41 0 0 1-.68-1.86h2.82c.054.427.26.78.62 1.06.374.28.834.42 1.38.42.534 0 .947-.107 1.24-.32.307-.213.46-.487.46-.82 0-.36-.186-.627-.56-.8-.36-.187-.94-.387-1.74-.6-.826-.2-1.506-.407-2.04-.62-.52-.213-.973-.54-1.36-.98-.373-.44-.56-1.033-.56-1.78 0-.613.174-1.173.52-1.68.36-.507.867-.907 1.52-1.2.667-.293 1.447-.44 2.34-.44 1.32 0 2.374.333 3.16 1 .787.653 1.22 1.54 1.3 2.66h-2.68c-.04-.44-.226-.787-.56-1.04-.32-.267-.753-.4-1.3-.4-.506 0-.9.093-1.18.28a.9.9 0 0 0-.4.78c0 .373.187.66.56.86.374.187.954.38 1.74.58.8.2 1.46.407 1.98.62s.967.547 1.34 1c.387.44.587 1.027.6 1.76 0 .64-.18 1.213-.54 1.72-.346.507-.853.907-1.52 1.2-.653.28-1.42.42-2.3.42zm10.899 0c-.907 0-1.72-.16-2.44-.48-.72-.333-1.294-.78-1.72-1.34-.414-.56-.64-1.18-.68-1.86h2.82c.053.427.26.78.62 1.06.373.28.833.42 1.38.42.533 0 .946-.107 1.24-.32.306-.213.46-.487.46-.82 0-.36-.187-.627-.56-.8-.36-.187-.94-.387-1.74-.6-.827-.2-1.507-.407-2.04-.62-.52-.213-.974-.54-1.36-.98-.374-.44-.56-1.033-.56-1.78a2.91 2.91 0 0 1 .52-1.68c.36-.507.866-.907 1.52-1.2.666-.293 1.446-.44 2.34-.44 1.32 0 2.373.333 3.16 1 .786.653 1.22 1.54 1.3 2.66h-2.68c-.04-.44-.227-.787-.56-1.04-.32-.267-.754-.4-1.3-.4-.507 0-.9.093-1.18.28-.267.187-.4.447-.4.78 0 .373.186.66.56.86.373.187.953.38 1.74.58.8.2 1.46.407 1.98.62s.966.547 1.34 1c.386.44.586 1.027.6 1.76 0 .64-.18 1.213-.54 1.72-.347.507-.854.907-1.52 1.2-.654.28-1.42.42-2.3.42zm11.738-8.96h-1.94V188h-2.84v-8.78h-1.26v-2.3h1.26v-.56c0-1.36.387-2.36 1.16-3s1.94-.94 3.5-.9v2.36c-.68-.013-1.153.1-1.42.34s-.4.673-.4 1.3v.46h1.94v2.3zm12.275-2.3V188h-2.82v-1.4a3.77 3.77 0 0 1-1.42 1.14 4.4 4.4 0 0 1-1.88.4c-.867 0-1.634-.18-2.3-.54a4.01 4.01 0 0 1-1.58-1.62c-.374-.72-.56-1.573-.56-2.56v-6.5h2.8v6.1c0 .88.22 1.56.66 2.04.44.467 1.04.7 1.8.7.773 0 1.38-.233 1.82-.7.44-.48.66-1.16.66-2.04v-6.1h2.82zm5.562-3.72V188h-2.8v-14.8h2.8zm6.387.6l-.32 9.66h-2.36l-.34-9.66h3.02zm-1.44 14.34c-.507 0-.927-.153-1.26-.46-.32-.32-.48-.713-.48-1.18s.16-.853.48-1.16c.333-.32.753-.48 1.26-.48.493 0 .9.16 1.22.48.32.307.48.693.48 1.16s-.16.86-.48 1.18c-.32.307-.727.46-1.22.46z" fill="#d80009"/></svg>

<svg width="241" height="196" viewBox="0 0 241 196" fill="none" xmlns="http://www.w3.org/2000/svg">
<rect x="77" y="30" width="87" height="87" rx="43.5" fill="#D80009"/>
<path d="M103 91L120.5 73.5001M120.5 73.5001L138 56M120.5 73.5001L103 56M120.5 73.5001L138 91" stroke="#FEFEFE" stroke-width="10" stroke-linecap="round" stroke-linejoin="round"/>
<rect x="62" y="15" width="117" height="117" rx="58.5" stroke="#D80009" stroke-opacity="0.1" stroke-width="30"/>
<path d="M12.06 178.36C12.06 179.107 11.88 179.807 11.52 180.46C11.1733 181.113 10.62 181.64 9.86 182.04C9.11333 182.44 8.16667 182.64 7.02 182.64H4.68V188H1.88V174.04H7.02C8.1 174.04 9.02 174.227 9.78 174.6C10.54 174.973 11.1067 175.487 11.48 176.14C11.8667 176.793 12.06 177.533 12.06 178.36ZM6.9 180.38C7.67333 180.38 8.24667 180.207 8.62 179.86C8.99333 179.5 9.18 179 9.18 178.36C9.18 177 8.42 176.32 6.9 176.32H4.68V180.38H6.9ZM13.328 182.42C13.328 181.3 13.548 180.307 13.988 179.44C14.4413 178.573 15.048 177.907 15.808 177.44C16.5813 176.973 17.4413 176.74 18.388 176.74C19.2146 176.74 19.9346 176.907 20.548 177.24C21.1746 177.573 21.6746 177.993 22.048 178.5V176.92H24.868V188H22.048V186.38C21.688 186.9 21.188 187.333 20.548 187.68C19.9213 188.013 19.1946 188.18 18.368 188.18C17.4346 188.18 16.5813 187.94 15.808 187.46C15.048 186.98 14.4413 186.307 13.988 185.44C13.548 184.56 13.328 183.553 13.328 182.42ZM22.048 182.46C22.048 181.78 21.9146 181.2 21.648 180.72C21.3813 180.227 21.0213 179.853 20.568 179.6C20.1146 179.333 19.628 179.2 19.108 179.2C18.588 179.2 18.108 179.327 17.668 179.58C17.228 179.833 16.868 180.207 16.588 180.7C16.3213 181.18 16.188 181.753 16.188 182.42C16.188 183.087 16.3213 183.673 16.588 184.18C16.868 184.673 17.228 185.053 17.668 185.32C18.1213 185.587 18.6013 185.72 19.108 185.72C19.628 185.72 20.1146 185.593 20.568 185.34C21.0213 185.073 21.3813 184.7 21.648 184.22C21.9146 183.727 22.048 183.14 22.048 182.46ZM38.2027 176.92L31.3427 193.24H28.3627L30.7627 187.72L26.3227 176.92H29.4627L32.3227 184.66L35.2227 176.92H38.2027ZM53.472 176.76C54.832 176.76 55.9254 177.18 56.752 178.02C57.592 178.847 58.012 180.007 58.012 181.5V188H55.212V181.88C55.212 181.013 54.992 180.353 54.552 179.9C54.112 179.433 53.512 179.2 52.752 179.2C51.992 179.2 51.3854 179.433 50.932 179.9C50.492 180.353 50.272 181.013 50.272 181.88V188H47.472V181.88C47.472 181.013 47.252 180.353 46.812 179.9C46.372 179.433 45.772 179.2 45.012 179.2C44.2387 179.2 43.6254 179.433 43.172 179.9C42.732 180.353 42.512 181.013 42.512 181.88V188H39.712V176.92H42.512V178.26C42.872 177.793 43.332 177.427 43.892 177.16C44.4654 176.893 45.092 176.76 45.772 176.76C46.6387 176.76 47.412 176.947 48.092 177.32C48.772 177.68 49.2987 178.2 49.672 178.88C50.032 178.24 50.552 177.727 51.232 177.34C51.9254 176.953 52.672 176.76 53.472 176.76ZM70.9691 182.22C70.9691 182.62 70.9424 182.98 70.8891 183.3H62.7891C62.8557 184.1 63.1357 184.727 63.6291 185.18C64.1224 185.633 64.7291 185.86 65.4491 185.86C66.4891 185.86 67.2291 185.413 67.6691 184.52H70.6891C70.3691 185.587 69.7557 186.467 68.8491 187.16C67.9424 187.84 66.8291 188.18 65.5091 188.18C64.4424 188.18 63.4824 187.947 62.6291 187.48C61.7891 187 61.1291 186.327 60.6491 185.46C60.1824 184.593 59.9491 183.593 59.9491 182.46C59.9491 181.313 60.1824 180.307 60.6491 179.44C61.1157 178.573 61.7691 177.907 62.6091 177.44C63.4491 176.973 64.4157 176.74 65.5091 176.74C66.5624 176.74 67.5024 176.967 68.3291 177.42C69.1691 177.873 69.8157 178.52 70.2691 179.36C70.7357 180.187 70.9691 181.14 70.9691 182.22ZM68.0691 181.42C68.0557 180.7 67.7957 180.127 67.2891 179.7C66.7824 179.26 66.1624 179.04 65.4291 179.04C64.7357 179.04 64.1491 179.253 63.6691 179.68C63.2024 180.093 62.9157 180.673 62.8091 181.42H68.0691ZM79.1528 176.76C80.4728 176.76 81.5395 177.18 82.3528 178.02C83.1661 178.847 83.5728 180.007 83.5728 181.5V188H80.7728V181.88C80.7728 181 80.5528 180.327 80.1128 179.86C79.6728 179.38 79.0728 179.14 78.3128 179.14C77.5395 179.14 76.9261 179.38 76.4728 179.86C76.0328 180.327 75.8128 181 75.8128 181.88V188H73.0128V176.92H75.8128V178.3C76.1861 177.82 76.6595 177.447 77.2328 177.18C77.8195 176.9 78.4595 176.76 79.1528 176.76ZM89.4955 179.22V184.58C89.4955 184.953 89.5821 185.227 89.7555 185.4C89.9421 185.56 90.2488 185.64 90.6755 185.64H91.9755V188H90.2155C87.8555 188 86.6755 186.853 86.6755 184.56V179.22H85.3555V176.92H86.6755V174.18H89.4955V176.92H91.9755V179.22H89.4955ZM101.515 174.04V182.68C101.515 183.627 101.762 184.353 102.255 184.86C102.748 185.353 103.442 185.6 104.335 185.6C105.242 185.6 105.942 185.353 106.435 184.86C106.928 184.353 107.175 183.627 107.175 182.68V174.04H109.995V182.66C109.995 183.847 109.735 184.853 109.215 185.68C108.708 186.493 108.022 187.107 107.155 187.52C106.302 187.933 105.348 188.14 104.295 188.14C103.255 188.14 102.308 187.933 101.455 187.52C100.615 187.107 99.9483 186.493 99.455 185.68C98.9617 184.853 98.715 183.847 98.715 182.66V174.04H101.515ZM118.84 176.76C120.16 176.76 121.227 177.18 122.04 178.02C122.854 178.847 123.26 180.007 123.26 181.5V188H120.46V181.88C120.46 181 120.24 180.327 119.8 179.86C119.36 179.38 118.76 179.14 118 179.14C117.227 179.14 116.614 179.38 116.16 179.86C115.72 180.327 115.5 181 115.5 181.88V188H112.7V176.92H115.5V178.3C115.874 177.82 116.347 177.447 116.92 177.18C117.507 176.9 118.147 176.76 118.84 176.76ZM130.163 188.18C129.256 188.18 128.443 188.02 127.723 187.7C127.003 187.367 126.43 186.92 126.003 186.36C125.59 185.8 125.363 185.18 125.323 184.5H128.143C128.196 184.927 128.403 185.28 128.763 185.56C129.136 185.84 129.596 185.98 130.143 185.98C130.676 185.98 131.09 185.873 131.383 185.66C131.69 185.447 131.843 185.173 131.843 184.84C131.843 184.48 131.656 184.213 131.283 184.04C130.923 183.853 130.343 183.653 129.543 183.44C128.716 183.24 128.036 183.033 127.503 182.82C126.983 182.607 126.53 182.28 126.143 181.84C125.77 181.4 125.583 180.807 125.583 180.06C125.583 179.447 125.756 178.887 126.103 178.38C126.463 177.873 126.97 177.473 127.623 177.18C128.29 176.887 129.07 176.74 129.963 176.74C131.283 176.74 132.336 177.073 133.123 177.74C133.91 178.393 134.343 179.28 134.423 180.4H131.743C131.703 179.96 131.516 179.613 131.183 179.36C130.863 179.093 130.43 178.96 129.883 178.96C129.376 178.96 128.983 179.053 128.703 179.24C128.436 179.427 128.303 179.687 128.303 180.02C128.303 180.393 128.49 180.68 128.863 180.88C129.236 181.067 129.816 181.26 130.603 181.46C131.403 181.66 132.063 181.867 132.583 182.08C133.103 182.293 133.55 182.627 133.923 183.08C134.31 183.52 134.51 184.107 134.523 184.84C134.523 185.48 134.343 186.053 133.983 186.56C133.636 187.067 133.13 187.467 132.463 187.76C131.81 188.04 131.043 188.18 130.163 188.18ZM147.281 176.92V188H144.461V186.6C144.101 187.08 143.628 187.46 143.041 187.74C142.468 188.007 141.841 188.14 141.161 188.14C140.295 188.14 139.528 187.96 138.861 187.6C138.195 187.227 137.668 186.687 137.281 185.98C136.908 185.26 136.721 184.407 136.721 183.42V176.92H139.521V183.02C139.521 183.9 139.741 184.58 140.181 185.06C140.621 185.527 141.221 185.76 141.981 185.76C142.755 185.76 143.361 185.527 143.801 185.06C144.241 184.58 144.461 183.9 144.461 183.02V176.92H147.281ZM149.324 182.46C149.324 181.313 149.557 180.313 150.024 179.46C150.491 178.593 151.137 177.927 151.964 177.46C152.791 176.98 153.737 176.74 154.804 176.74C156.177 176.74 157.311 177.087 158.204 177.78C159.111 178.46 159.717 179.42 160.024 180.66H157.004C156.844 180.18 156.571 179.807 156.184 179.54C155.811 179.26 155.344 179.12 154.784 179.12C153.984 179.12 153.351 179.413 152.884 180C152.417 180.573 152.184 181.393 152.184 182.46C152.184 183.513 152.417 184.333 152.884 184.92C153.351 185.493 153.984 185.78 154.784 185.78C155.917 185.78 156.657 185.273 157.004 184.26H160.024C159.717 185.46 159.111 186.413 158.204 187.12C157.297 187.827 156.164 188.18 154.804 188.18C153.737 188.18 152.791 187.947 151.964 187.48C151.137 187 150.491 186.333 150.024 185.48C149.557 184.613 149.324 183.607 149.324 182.46ZM161.355 182.46C161.355 181.313 161.589 180.313 162.055 179.46C162.522 178.593 163.169 177.927 163.995 177.46C164.822 176.98 165.769 176.74 166.835 176.74C168.209 176.74 169.342 177.087 170.235 177.78C171.142 178.46 171.749 179.42 172.055 180.66H169.035C168.875 180.18 168.602 179.807 168.215 179.54C167.842 179.26 167.375 179.12 166.815 179.12C166.015 179.12 165.382 179.413 164.915 180C164.449 180.573 164.215 181.393 164.215 182.46C164.215 183.513 164.449 184.333 164.915 184.92C165.382 185.493 166.015 185.78 166.815 185.78C167.949 185.78 168.689 185.273 169.035 184.26H172.055C171.749 185.46 171.142 186.413 170.235 187.12C169.329 187.827 168.195 188.18 166.835 188.18C165.769 188.18 164.822 187.947 163.995 187.48C163.169 187 162.522 186.333 162.055 185.48C161.589 184.613 161.355 183.607 161.355 182.46ZM184.407 182.22C184.407 182.62 184.38 182.98 184.327 183.3H176.227C176.293 184.1 176.573 184.727 177.067 185.18C177.56 185.633 178.167 185.86 178.887 185.86C179.927 185.86 180.667 185.413 181.107 184.52H184.127C183.807 185.587 183.193 186.467 182.287 187.16C181.38 187.84 180.267 188.18 178.947 188.18C177.88 188.18 176.92 187.947 176.067 187.48C175.227 187 174.567 186.327 174.087 185.46C173.62 184.593 173.387 183.593 173.387 182.46C173.387 181.313 173.62 180.307 174.087 179.44C174.553 178.573 175.207 177.907 176.047 177.44C176.887 176.973 177.853 176.74 178.947 176.74C180 176.74 180.94 176.967 181.767 177.42C182.607 177.873 183.253 178.52 183.707 179.36C184.173 180.187 184.407 181.14 184.407 182.22ZM181.507 181.42C181.493 180.7 181.233 180.127 180.727 179.7C180.22 179.26 179.6 179.04 178.867 179.04C178.173 179.04 177.587 179.253 177.107 179.68C176.64 180.093 176.353 180.673 176.247 181.42H181.507ZM190.69 188.18C189.784 188.18 188.97 188.02 188.25 187.7C187.53 187.367 186.957 186.92 186.53 186.36C186.117 185.8 185.89 185.18 185.85 184.5H188.67C188.724 184.927 188.93 185.28 189.29 185.56C189.664 185.84 190.124 185.98 190.67 185.98C191.204 185.98 191.617 185.873 191.91 185.66C192.217 185.447 192.37 185.173 192.37 184.84C192.37 184.48 192.184 184.213 191.81 184.04C191.45 183.853 190.87 183.653 190.07 183.44C189.244 183.24 188.564 183.033 188.03 182.82C187.51 182.607 187.057 182.28 186.67 181.84C186.297 181.4 186.11 180.807 186.11 180.06C186.11 179.447 186.284 178.887 186.63 178.38C186.99 177.873 187.497 177.473 188.15 177.18C188.817 176.887 189.597 176.74 190.49 176.74C191.81 176.74 192.864 177.073 193.65 177.74C194.437 178.393 194.87 179.28 194.95 180.4H192.27C192.23 179.96 192.044 179.613 191.71 179.36C191.39 179.093 190.957 178.96 190.41 178.96C189.904 178.96 189.51 179.053 189.23 179.24C188.964 179.427 188.83 179.687 188.83 180.02C188.83 180.393 189.017 180.68 189.39 180.88C189.764 181.067 190.344 181.26 191.13 181.46C191.93 181.66 192.59 181.867 193.11 182.08C193.63 182.293 194.077 182.627 194.45 183.08C194.837 183.52 195.037 184.107 195.05 184.84C195.05 185.48 194.87 186.053 194.51 186.56C194.164 187.067 193.657 187.467 192.99 187.76C192.337 188.04 191.57 188.18 190.69 188.18ZM201.589 188.18C200.682 188.18 199.869 188.02 199.149 187.7C198.429 187.367 197.855 186.92 197.429 186.36C197.015 185.8 196.789 185.18 196.749 184.5H199.569C199.622 184.927 199.829 185.28 200.189 185.56C200.562 185.84 201.022 185.98 201.569 185.98C202.102 185.98 202.515 185.873 202.809 185.66C203.115 185.447 203.269 185.173 203.269 184.84C203.269 184.48 203.082 184.213 202.709 184.04C202.349 183.853 201.769 183.653 200.969 183.44C200.142 183.24 199.462 183.033 198.929 182.82C198.409 182.607 197.955 182.28 197.569 181.84C197.195 181.4 197.009 180.807 197.009 180.06C197.009 179.447 197.182 178.887 197.529 178.38C197.889 177.873 198.395 177.473 199.049 177.18C199.715 176.887 200.495 176.74 201.389 176.74C202.709 176.74 203.762 177.073 204.549 177.74C205.335 178.393 205.769 179.28 205.849 180.4H203.169C203.129 179.96 202.942 179.613 202.609 179.36C202.289 179.093 201.855 178.96 201.309 178.96C200.802 178.96 200.409 179.053 200.129 179.24C199.862 179.427 199.729 179.687 199.729 180.02C199.729 180.393 199.915 180.68 200.289 180.88C200.662 181.067 201.242 181.26 202.029 181.46C202.829 181.66 203.489 181.867 204.009 182.08C204.529 182.293 204.975 182.627 205.349 183.08C205.735 183.52 205.935 184.107 205.949 184.84C205.949 185.48 205.769 186.053 205.409 186.56C205.062 187.067 204.555 187.467 203.889 187.76C203.235 188.04 202.469 188.18 201.589 188.18ZM213.327 179.22H211.387V188H208.547V179.22H207.287V176.92H208.547V176.36C208.547 175 208.934 174 209.707 173.36C210.481 172.72 211.647 172.42 213.207 172.46V174.82C212.527 174.807 212.054 174.92 211.787 175.16C211.521 175.4 211.387 175.833 211.387 176.46V176.92H213.327V179.22ZM225.602 176.92V188H222.782V186.6C222.422 187.08 221.948 187.46 221.362 187.74C220.788 188.007 220.162 188.14 219.482 188.14C218.615 188.14 217.848 187.96 217.182 187.6C216.515 187.227 215.988 186.687 215.602 185.98C215.228 185.26 215.042 184.407 215.042 183.42V176.92H217.842V183.02C217.842 183.9 218.062 184.58 218.502 185.06C218.942 185.527 219.542 185.76 220.302 185.76C221.075 185.76 221.682 185.527 222.122 185.06C222.562 184.58 222.782 183.9 222.782 183.02V176.92H225.602ZM231.164 173.2V188H228.364V173.2H231.164ZM237.551 173.8L237.231 183.46H234.871L234.531 173.8H237.551ZM236.111 188.14C235.604 188.14 235.184 187.987 234.851 187.68C234.531 187.36 234.371 186.967 234.371 186.5C234.371 186.033 234.531 185.647 234.851 185.34C235.184 185.02 235.604 184.86 236.111 184.86C236.604 184.86 237.011 185.02 237.331 185.34C237.651 185.647 237.811 186.033 237.811 186.5C237.811 186.967 237.651 187.36 237.331 187.68C237.011 187.987 236.604 188.14 236.111 188.14Z" fill="#D80009"/>
</svg>
